build/img/svg/icon-cursor.svg

<svg width="34" height="34" viewBox="0 0 34 34" fill="none" xmlns="http://www.w3.org/2000/svg">
<path d="M32.3303 10.564L1.01074 1.00586L11.1138 32.6985L15.6602 23.6434L25.7633 32.6985L32.8354 25.6557L23.2375 15.5945L32.3303 10.564Z" fill="white"/>
<path d="M10.589 34C10.2542 33.7827 10.0753 33.4746 9.9571 33.0904C6.67477 22.5197 3.38874 11.9505 0.0989891 1.3826C0.00931897 1.1296 -0.0200012 0.859162 0.0133632 0.592835C0.108408 0.0922797 0.622163 -0.117353 1.21213 0.0649003C3.49548 0.768245 5.77656 1.47473 8.05535 2.18435C9.51099 2.63527 10.9615 3.08278 12.412 3.54141C13.0045 3.7288 13.2563 4.17716 13.079 4.67429C12.9078 5.15773 12.4677 5.35025 11.8863 5.17228C10.5008 4.74445 9.11711 4.31235 7.7334 3.8811C5.99576 3.34033 4.25841 2.79842 2.52134 2.25537C2.41688 2.22285 2.309 2.19889 2.13004 2.15183C5.10468 11.7129 8.06134 21.2166 11.0471 30.8161C11.1524 30.621 11.2244 30.4978 11.2877 30.3695C12.4785 27.9771 13.6687 25.5844 14.8583 23.1914C15.3378 22.228 15.8747 22.1355 16.6265 22.8868C19.507 25.7646 22.3866 28.6433 25.2653 31.5229C25.3569 31.6228 25.4427 31.728 25.5222 31.8378L31.8054 25.5599C31.766 25.5188 31.6547 25.3981 31.5383 25.2818C28.6492 22.3925 25.7596 19.5036 22.8695 16.6149C22.1365 15.8825 22.2307 15.34 23.1692 14.8736L30.3883 11.2868C30.5116 11.2251 30.6306 11.1567 30.8164 11.0566C29.0859 10.5167 27.4325 9.99986 25.7782 9.48647C23.4566 8.76487 21.135 8.04498 18.8134 7.32681C18.4443 7.213 18.1155 7.05984 18.0171 6.64229C17.8518 5.9398 18.4572 5.42384 19.2038 5.65059C20.7408 6.11692 22.2718 6.60293 23.8054 7.07952C26.8731 8.03158 29.9416 8.98192 33.011 9.93055C33.4143 10.0546 33.7748 10.2155 34 10.592V11.1054C33.7551 11.3295 33.5462 11.6239 33.261 11.7685C31.0159 12.9056 28.7563 14.0146 26.5017 15.1329C25.9195 15.4213 25.3398 15.7139 24.7207 16.0245C24.8552 16.1682 24.9579 16.2812 25.0632 16.3907C27.8632 19.1887 30.6617 21.9884 33.4588 24.7898C33.6738 25.0054 33.8193 25.2886 33.9974 25.541V25.7122C33.8262 25.9689 33.6952 26.2564 33.4837 26.4686C31.1638 28.8045 28.835 31.1319 26.4975 33.4507C26.2731 33.6723 25.9726 33.8177 25.7071 33.9983H25.5359C25.2859 33.8203 25.0033 33.6749 24.7884 33.4609C21.9661 30.6544 19.1493 27.8425 16.3379 25.0251C16.2412 24.9284 16.1393 24.836 16.0177 24.7213C15.9227 24.907 15.8507 25.0439 15.7814 25.1834C14.4422 27.8778 13.1107 30.574 11.757 33.2616C11.6131 33.5457 11.3203 33.7544 11.0959 33.9983L10.589 34Z" fill="#565555"/>
<path d="M15.5627 6.2573C15.3411 6.26037 15.127 6.17671 14.9662 6.02419C14.8054 5.87167 14.7107 5.66238 14.7022 5.44101C14.7001 5.21115 14.7889 4.98974 14.9492 4.82489C15.1095 4.66004 15.3284 4.56504 15.5584 4.56055C15.6723 4.56052 15.7851 4.58321 15.8901 4.62728C15.9951 4.67134 16.0903 4.73591 16.17 4.81718C16.2498 4.89846 16.3125 4.99482 16.3545 5.10061C16.3965 5.20641 16.417 5.31951 16.4147 5.43331C16.4134 5.54346 16.3902 5.65225 16.3466 5.7534C16.303 5.85456 16.2397 5.94608 16.1605 6.02269C16.0813 6.0993 15.9877 6.15947 15.8851 6.19974C15.7825 6.24001 15.6729 6.25957 15.5627 6.2573Z" fill="#565555"/>
</svg>

<svg width="34" height="34" fill="none" xmlns="http://www.w3.org/2000/svg"><path d="M32.33 10.564L1.01 1.006l10.104 31.693 4.546-9.056L25.763 32.7l7.072-7.043-9.598-10.061 9.093-5.031z" fill="#fff"/><path d="M10.589 34c-.335-.217-.514-.525-.632-.91C6.675 22.52 3.39 11.95.1 1.383a1.723 1.723 0 01-.086-.79c.095-.5.61-.71 1.2-.528 2.282.703 4.564 1.41 6.842 2.12 1.456.45 2.906.898 4.357 1.356.592.188.844.636.667 1.133-.171.484-.611.676-1.193.498-1.385-.428-2.769-.86-4.153-1.29L2.521 2.254c-.104-.032-.212-.056-.391-.103l8.917 28.664c.105-.195.177-.318.24-.447a9581.68 9581.68 0 003.571-7.178c.48-.963 1.017-1.055 1.768-.304 2.881 2.878 5.76 5.756 8.64 8.636.09.1.177.205.256.315l6.283-6.278c-.039-.041-.15-.162-.267-.278-2.889-2.89-5.778-5.778-8.669-8.667-.732-.732-.638-1.275.3-1.741l7.22-3.587c.123-.062.242-.13.427-.23-1.73-.54-3.383-1.057-5.038-1.57a4305.78 4305.78 0 00-6.965-2.16c-.369-.114-.697-.267-.796-.685-.165-.702.44-1.218 1.187-.991 1.537.466 3.068.952 4.601 1.429 3.068.952 6.137 1.902 9.206 2.85.403.125.764.286.989.662v.513c-.245.224-.454.519-.739.663-2.245 1.138-4.505 2.247-6.76 3.365-.582.288-1.161.58-1.78.892.134.143.237.256.342.366 2.8 2.798 5.599 5.597 8.396 8.399.215.215.36.499.538.751v.171c-.17.257-.302.544-.513.757-2.32 2.335-4.649 4.663-6.987 6.982-.224.221-.524.367-.79.547h-.171c-.25-.178-.533-.323-.748-.537a3054.89 3054.89 0 01-8.45-8.436c-.097-.097-.199-.189-.32-.304-.095.186-.167.323-.237.462-1.339 2.695-2.67 5.391-4.024 8.079-.144.284-.437.492-.661.736l-.507.002z" fill="#565555"/><path d="M15.563 6.257a.85.85 0 01-.86-.816.872.872 0 01.855-.88.857.857 0 01.789 1.192.834.834 0 01-.784.504z" fill="#565555"/></svg>
